X: 1
T: Maid Of The House, The
M: 4/4
L: 1/8
R: reel
K: Gmaj
dG (3GGG dGBG|GABd edcB|ABcd eA (3AAA|ABcd efge|
dG (3GGG dGBG|GABd edcB|ABcd efge|1 dcBA G2 ge:|2 dcBA G2 Bc||
dg (3ggg bg (3ggg|dggf edcB|Aa (3aaa abag|eaag fdef|
g2 ge f2 fd|efge dcBG|ABcd efge|1 dcBA G2 Bc:|2 dcBA G4||
